X:1
T: Hick's Hornpipe
C:
R:Reel
Q: 232
K:G
M:4/4
L:1/8
|:Bc|dB GB dB GB|cB AG FA Dc|dB GB cB AG|FA DD D2 Bc|
dB GB dB ed|cB AG FA Dc|Bc BG DF AF|G2 GG G2:|
|:dc|BG Bd ec eg|fd fa gf ed|gf gd gb ag|f2 d2 d2 dc|
BG Bd ec eg|fd fa gf ed|b2 bg df af|g2 gf g2:|
